X:1
T:Title
%%score { 1 | 2 }
L:1/8
M:4/4
K:Ab
V:1 treble nm="Grand Piano"
V:2 bass 
V:1
 z4 z2[Q:1/4=94] [CE]2 | [Ec]3 [Fd] [Ec][EB][EA][DF] | [CE]6 A2 | A3 G FEBE |[M:3/4] [Ec]6 | %5
[M:1/4] [CA]2 |[M:4/4] [CA]3 [CA] [CA][CA][CB][CA] | A6 F2 | E3 c cBFG |[M:3/4] [CA]6 | %10
[M:1/4] [Ec]2 |[M:4/4] [Ec]3 [Fd] [Ec]2 B2 | B3 A A2 [Ec]2 | [=Dc]3 [DB] [DA][DF][DG][DA] | %14
[M:3/4] [DB]6 |[M:1/4] [DE]2 |[M:4/4] [CE]3 [CA] [Ec]2 [_Ge]2 |[M:9/8] [Fe]3 [Fd] [Fd]2- [Fd] F2 | %18
[M:4/4] E3 A c2 A2 |[M:3/4] B3 [CA] [CA]2 |] %20
V:2
 z4 z2 [A,,A,]2 | [A,,A,]3 [A,,A,] [A,,A,][B,,G,][C,A,][D,A,] | [A,,A,]6 [E,CE]2 | %3
 [E,B,D]3 [E,B,D] [E,A,D][E,G,D][E,G,D][E,G,D] |[M:3/4] [A,,A,]6 |[M:1/4] [A,,A,]2 | %6
[M:4/4] [A,,_G,]3 [A,,G,] [A,,G,][A,,G,][A,,G,][A,,G,] | [D,F,D]6 [D,A,D]2 | %8
 [E,A,C]3 [E,A,E] [E,G,E][E,G,D][E,A,D][E,B,D] |[M:3/4] [A,,A,]6 |[M:1/4] [A,,A,]2 | %11
[M:4/4] [A,,A,]3 [A,,A,] [A,,A,]2 [E,G,D]2 | [F,A,D]3 [F,A,C] [F,A,C]2 [A,,A,]2 | %13
 [B,,F,]3 [B,,F,] [B,,F,][B,,A,][B,,G,][B,,F,] |[M:3/4] [E,G,]6 |[M:1/4] [E,G,]2 | %16
[M:4/4] [A,,A,]3 [A,,A,] [A,,A,]2 [C,A,]2 |[M:9/8] [D,A,]3 [D,A,] [D,A,]2- [D,A,] [D,A,D]2 | %18
[M:4/4] [E,A,C]3 [E,A,C] [E,A,E]2 [F,A,=D]2 |[M:3/4] [E,G,D]3 [A,,A,] [A,,A,]2 |] %20

